X: 4262
T: The WEAVER
%R: jig
B: James Kerr "Merry Melodies" v.4 p.28 #262
Z: 2016 John Chambers <jc:trillian.mit.edu>
M: 6/8
L: 1/8
K: A
a |\
AAA cBA | cde =g3 | =GGG B2G | d2=G BAG |\
AAA cBA | cde =g2a | ede =gdB | AAA A2 :|
|: e |\
AAa acc | ecc a2c | BB=g gBB | dBB =gBB |\
AAa acc | ecc =g2a | ede =gdB | AAA A2 :|

%%sep 1 1 500
%%sep 1 1 500

